X: 36661
T: Sharon Eubanks's
R: waltz
M: 3/4
K: Amajor
AB|:c2cd ec|Bc BA GA|F2A2B2|A3F AF|
E3C EF|EF AB c/B/A|c2B2A2|B4 AB|
c2cd ec|Bc BA GA|F2A2B2|A3F AF|
E3C EF|EF AB c/B/A|B2c2B2|A4 AB:|
|:c2AB c/B/A|e2cd ec|d2f2a2|f3e fe|
ce AB ce|f2e2c2|B2c2A2|B4 AB|
[1c2AB c/B/A|e2cd ec|d2f2a2|f3e fe|
c3B c/B/A|Bc BA GA|F2A2B2|A4 AB:|
[2c2cd ec|Bc BA GA|F2A2B2|A3F AF|
E3C EF|EF AB c/B/A|B2c2B2|A6||

